assets/icons/starlight.svg

<svg width="24" height="24" viewBox="0 0 24 24" fill="none" xmlns="http://www.w3.org/2000/svg">
<path d="M17.2902 4.14097L17.2202 7.93095C17.2102 8.45095 17.5403 9.14097 17.9603 9.45097L20.4403 11.3309C22.0303 12.5309 21.7703 14.001 19.8703 14.601L16.6403 15.6109C16.1003 15.7809 15.5303 16.371 15.3903 16.921L14.6203 19.8609C14.0103 22.1809 12.4902 22.411 11.2302 20.371L9.47024 17.5209C9.15024 17.0009 8.39024 16.611 7.79024 16.641L4.45028 16.811C2.06028 16.931 1.38027 15.551 2.94027 13.731L4.92025 11.4309C5.29025 11.0009 5.46024 10.201 5.29024 9.66096L4.28029 6.43095C3.69029 4.53095 4.75028 3.48096 6.64028 4.10096L9.59029 5.07096C10.0903 5.23096 10.8403 5.12095 11.2603 4.81095L14.3403 2.59095C16.0003 1.39095 17.3302 2.09097 17.2902 4.14097Z" stroke="#424A55" stroke-width="1.5" stroke-linecap="round" stroke-linejoin="round"/>
<path d="M21.9108 22.0007L18.8809 18.9707" stroke="#424A55" stroke-width="1.5" stroke-linecap="round" stroke-linejoin="round"/>
</svg>

<svg width="24" height="24" viewBox="0 0 24 24" fill="none" xmlns="http://www.w3.org/2000/svg"><path d="m17.29 4.14-.07 3.8c-.01.51.32 1.2.74 1.51l2.48 1.88c1.59 1.2 1.33 2.67-.57 3.27l-3.23 1.01c-.54.17-1.11.76-1.25 1.31l-.77 2.94c-.61 2.32-2.13 2.55-3.39.51l-1.76-2.85a2 2 0 0 0-1.68-.88l-3.34.17c-2.39.12-3.07-1.26-1.51-3.08l1.98-2.3c.37-.43.54-1.23.37-1.77L4.28 6.43c-.59-1.9.47-2.95 2.36-2.33l2.95.97c.5.16 1.25.05 1.67-.26l3.08-2.22c1.66-1.2 2.99-.5 2.95 1.55M21.91 22l-3.03-3.03" stroke="#424A55" stroke-width="1.5" stroke-linecap="round" stroke-linejoin="round"/></svg>
